X: 3
T: Hawthorn Bush, The
M: 9/8
L: 1/8
R: slip jig
K: G Major
|: g |
dBB B^AB G2 e | dBG AB/c/d e2 g |
dBB B^AB G2 B | BAG ABd e2 :|
|: f |
gfg age dBG | d2 d agf e2 d |
gfg agf egg | dBG AB/c/d e2 :|
